X: 1
T: Snoa
O: Sweden
R: snoa, march
Z: 2017 John Chambers <jc:trillian.mit.edu>
N: handwritten MS of unknown origin.
M: 4/4
L: 1/8
K: G
GB |\
"G"d2Bd g2(fe) | d2B2 B2GB | d2Bd g2(fe) | d2c2 c2DF |\
A2FA d2DF | A2FA d2-d2 | d2ed cBA2 |1,3 B6 :|2 G6 :|4 G4 ||
|: g2g2 |\
e3c c2e2 | g2fg (ag)(fe) | d3B G2e2 | d2-d2- d2ed |\
c3A F2A2 |d4 d3{ed}c | B3D G2B2 | d4 g2g2 |
e3c c2e2 | g2fg (ag)(fe) | d3B G2e2 | d2-d2- d2ed |\
c3A F2A2 | f2-f2- f2-fe | d2c2 B2A2 | G4 :|
